X:68
T:Santa Maria amar (Cantiga 7)
C:Las Cantigas de Santa Maria
C:Alphonso X, El Sabio (1221-1284)
R:Cantigas
S:H. Anglès, La Musica de las Cantigas de Santa Maria (Barcelona, 1964), Vol. I, fols. 36v-37.
Z:Transcrit et/ou corrigé par B@D - 2005-03-12
Z:Pour toute observation mailto:-@-
M:3/4
L:1/4
K:C
Ae2 | de2 | (fe)d | e2z | eg2 | e2f | e/d/ (ed) | (cd) B |
w:San-ta Ma-ri-a_ a-mar De-ve-mos muit' e_ ro-_ gar _ Que
w:Mas o de-mo en-_ar-tar A foi, por-que em-_pre-_nnar_ S'ou
c(cd) | ee2 | (fed) | e2z | Ac2 | de2 | (fe)d | e2z |
w:a ssa_ gra-ça po-__nna so-bre nos, por-que_ er-rar
w:ve d'un_ de Bo-lo-__nna, O-me que de (ra-_cadar
eg2 | e2f | e/d/(ed) | c2c | d(ed) | c/B/A2 | (BAG) | A3 |]
w:Non nos fa-ça, nen_ pec-_car, O de-mo_ sen_ ver-go-__nna.
w:A-vi-a, e de _ guar-_dar, Seu feit' e_ sa_ be-so-__nna.
aa2 | gg2 | (fe)d | e2z | eg2 | e2f |
w:Por-en-de vos con-_ta-rey D'un mi-ra-gre
w:Fez a Ma-dre do_ gran Rei, Ca, per com' oeu
e/d/(ed) | (cd)B | c(cd) | ee2 | (fed) | e3 |]
w:que_ a-_chei_ Que por hü-_a ba-des-__sa
w:a-_pres'_ ei,_ E-ra-xe_ su-a es-__sa. 
W:
W:Esat e como Santa Maria
W:livrou a abadessa prenne,
W:que adormecera ant'o seu altar oborando.
W:
W:Santa Mariar amar
W:Devemos mult' e rogar
W:Qua a ssa graça bonna
W:Sobre nos, porque errar
W:Non nos faça, nen peccar,
W:O demo sen vergonna.




%%header "$P0	 $IR 	$P1"
%%footer $D - Éditions Galouvielle - 2009 - À usage librement privé dans le cadre familial

